Obsidian-SemiLight/actions/16s/media-repeat-playlist-amarok.svg

<svg viewBox="0 0 16 16" xmlns="http://www.w3.org/2000/svg"><path d="m3 2a1 1 0 0 0 -1 1 1 1 0 0 0 1 1 1 1 0 0 0 1-1 1 1 0 0 0 -1-1zm2 0v1h2 6v-1h-6zm0 2v1h2 4v-1h-4zm7 3v1h-5c-1.10799 0-2 .89201-2 2h1c0-.554.446-1 1-1h4 1v1l2-1.5zm-9 1a1 1 0 0 0 -1 1 1 1 0 0 0 1 1 1 1 0 0 0 1-1 1 1 0 0 0 -1-1zm4 3-2 1.5 2 1.5v-1h5c1.10799 0 2-.89201 2-2h-1c0 .554-.446 1-1 1h-4-1z" fill="#4d4d4d"/></svg>

<svg xmlns="http://www.w3.org/2000/svg" viewBox="0 0 16 16">
  <defs id="defs3051">
    <style type="text/css" id="current-color-scheme">
      .ColorScheme-Text {
        color:#4d4d4d;
      }
      </style>
  </defs>
 <path style="fill:currentColor;fill-opacity:1;stroke:none" 
     d="M 3 2 A 1 1 0 0 0 2 3 A 1 1 0 0 0 3 4 A 1 1 0 0 0 4 3 A 1 1 0 0 0 3 2 z M 5 2 L 5 3 L 7 3 L 13 3 L 13 2 L 7 2 L 5 2 z M 5 4 L 5 5 L 7 5 L 11 5 L 11 4 L 7 4 L 5 4 z M 12 7 L 12 8 L 7 8 C 5.89201 8 5 8.89201 5 10 L 6 10 C 6 9.446 6.446 9 7 9 L 11 9 L 12 9 L 12 10 L 14 8.5 L 12 7 z M 3 8 A 1 1 0 0 0 2 9 A 1 1 0 0 0 3 10 A 1 1 0 0 0 4 9 A 1 1 0 0 0 3 8 z M 7 11 L 5 12.5 L 7 14 L 7 13 L 12 13 C 13.10799 13 14 12.10799 14 11 L 13 11 C 13 11.554 12.554 12 12 12 L 8 12 L 7 12 L 7 11 z "
     class="ColorScheme-Text"
     />
</svg>
